X:16
T:GB/7c/16 Belt On, Brave Boys
%%VWML:GB-7c-16-0
F:http://www.vwml.org/record/GB/7c/16
C:Transcribed by Simon Furey and Lewis Jones
L:1/8
M:4/4
I:linebreak $
K:Eaeo
D | G2 GA GFED | G>ABG AG!fermata!ED | G3 A GFED | G2 AB A2 z D |$ GABd e2 e e | ABAG FA !fermata!d2 | G3 F/E/ B3 G | AG ED E3 |]

